source/img/sprite.svg

<svg xmlns="http://www.w3.org/2000/svg">
<symbol id="footer-logo" viewBox="0 0 102 18" fill="none">
  <path d="M1.264 16.538A6.865 6.865 0 0 1 0 12.231V5.846a6.95 6.95 0 0 1 1.185-4.384C2.055.462 3.398 0 5.374 0s3.24.462 4.03 1.308a5.422 5.422 0 0 1 1.186 3.769v1.538H6.718V4.846a3.693 3.693 0 0 0-.238-1.538 1.12 1.12 0 0 0-.456-.473 1.163 1.163 0 0 0-.65-.143c-.553 0-.948.154-1.106.539a4.846 4.846 0 0 0-.237 1.692v8.23a3.111 3.111 0 0 0 .316 1.616c.158.385.553.539 1.106.539s.87-.154 1.027-.539c.18-.52.26-1.067.238-1.615v-1.846h3.872v1.538a5.775 5.775 0 0 1-1.185 3.846c-.79.923-2.134 1.385-4.031 1.385-1.897-.077-3.32-.539-4.11-1.539ZM15.253.23h4.504l3.32 17.54H19.44l-.632-3.693H16.2l-.632 3.692h-3.715l3.4-17.538Zm3.24 11.54-.948-6.847-.949 6.846h1.897Zm7.35-8.616h-2.687V.23h9.404v2.846h-2.687v14.692h-4.03V3.154ZM39.752.23h6.955v1.847h-4.505v5.77h3.635v1.768h-3.635v6.462h4.505v1.77h-7.034V.23h.079Zm9.009 0H50.5l5.137 11.616V.231h2.055v17.538h-1.58l-5.217-12v12h-2.134V.231Zm11.302 0h6.954v1.847h-4.504v5.77h3.635v1.768h-3.635v6.462h4.504v1.77h-6.954V.23Zm9.009 0h3.635a6.451 6.451 0 0 1 4.03 1.078c.87.692 1.265 1.923 1.265 3.538 0 2.23-.71 3.616-2.212 4.077l2.528 8.77h-2.45l-2.37-8.231h-1.976v8.23h-2.529V.231h.079Zm3.477 7.54a3.524 3.524 0 0 0 2.292-.616c.474-.385.711-1.154.711-2.308a4.848 4.848 0 0 0-.237-1.692 1.975 1.975 0 0 0-.869-.923 3.69 3.69 0 0 0-1.739-.308h-1.106v5.77h.948v.076Zm8.614 8.692A7.613 7.613 0 0 1 80.058 12V6.154a12.26 12.26 0 0 1 .395-3.308 3.916 3.916 0 0 1 1.502-2c.882-.508 1.9-.75 2.924-.692 1.66 0 2.845.384 3.556 1.23a5.77 5.77 0 0 1 1.107 3.847v.615H87.17v-.538a11.04 11.04 0 0 0-.158-1.923 1.533 1.533 0 0 0-.633-1A2.493 2.493 0 0 0 84.878 2a2.416 2.416 0 0 0-1.58.462c-.187.152-.338.34-.447.551a1.701 1.701 0 0 0-.186.68 14.01 14.01 0 0 0-.158 2.076v6.539a6.816 6.816 0 0 0 .474 2.923c.316.615.949.846 1.897.846.374.045.754-.018 1.092-.182.337-.165.617-.422.805-.741a6.908 6.908 0 0 0 .553-3.077v-1.23h-2.292v-1.77h4.584v8.692h-1.58l-.238-2a3.143 3.143 0 0 1-1.226 1.658 3.288 3.288 0 0 1-2.014.573 4.046 4.046 0 0 1-1.899-.352 3.932 3.932 0 0 1-1.5-1.186Zm13.515-4.847L90.805.308h2.371l2.766 8.461L98.63.308H101l-3.872 11.307v6.154h-2.371v-6.154h-.08Z" fill="#111"/>
</symbol>
<symbol id="icon-vk" viewBox="0 0 28 17" fill="currentColor">
  <path d="M0.5 2.33876C0.5 1.48373 1.0151 1.02268 2.04531 0.955621L6.01515 0.980769C6.28158 0.980769 6.45921 1.10651 6.54802 1.35799C6.95655 2.61538 7.41392 3.70094 7.92014 4.61465C8.42637 5.52835 9.08801 6.58038 9.90507 7.77071C9.97611 7.9216 10.0916 7.99704 10.2514 7.99704C10.3758 7.99704 10.4735 7.93836 10.5445 7.82101L10.6244 7.54438L10.6511 3.19379C10.6511 2.89201 10.5756 2.69083 10.4246 2.59024C10.2736 2.48965 9.99388 2.4142 9.58535 2.36391C9.26563 2.31361 9.10577 2.12919 9.10577 1.81065C9.10577 1.74359 9.11465 1.69329 9.13241 1.65976C9.50542 0.57002 10.5711 0.0251479 12.3296 0.0251479L13.8216 0C14.4966 0 15.0561 0.15927 15.5001 0.477811C15.9442 0.796351 16.1662 1.29931 16.1662 1.98669V7.69527C16.2906 7.77909 16.406 7.82101 16.5126 7.82101C16.779 7.82101 17.0099 7.67012 17.2053 7.36834C19.1592 4.78649 20.216 3.05966 20.3759 2.18787C20.3759 2.1711 20.3936 2.12919 20.4291 2.06213C20.5535 1.81065 20.7577 1.5927 21.0419 1.40828C21.3261 1.22387 21.5748 1.09813 21.788 1.03107C21.859 0.997535 21.9389 0.980769 22.0277 0.980769H26.1574L26.4239 1.00592C26.7791 1.00592 27.0544 1.16519 27.2498 1.48373C27.3209 1.58432 27.3697 1.69329 27.3964 1.81065C27.423 1.92801 27.4408 2.04536 27.4496 2.16272C27.4585 2.28008 27.463 2.34714 27.463 2.36391V2.53994C27.3386 3.22732 27.0233 3.9608 26.5171 4.74038C26.0109 5.51997 25.367 6.36243 24.5855 7.26775C23.804 8.17308 23.3155 8.76825 23.1201 9.05326C22.9603 9.25444 22.8803 9.43886 22.8803 9.60651C22.8803 9.74063 22.9514 9.89152 23.0935 10.0592L26.9834 14.6864C27.1965 14.9546 27.3031 15.248 27.3031 15.5666C27.3031 15.9522 27.1432 16.2707 26.8235 16.5222C26.5038 16.7737 26.1219 16.9162 25.6779 16.9497L25.2249 16.9749H21.1752C21.1574 16.9749 21.1219 16.979 21.0686 16.9874C21.0153 16.9958 20.9798 17 20.962 17C20.5712 17 20.2071 16.8407 19.8696 16.5222C19.7453 16.3881 18.9105 15.3989 17.3652 13.5547C17.2764 13.4374 17.152 13.3284 16.9922 13.2278C16.9211 13.4961 16.8279 13.8817 16.7124 14.3846C16.597 14.8876 16.5126 15.248 16.4593 15.466L16.3794 15.8935C16.2018 16.4803 15.8287 16.8323 15.2604 16.9497L14.8874 16.9749H12.2763C10.8021 16.9749 9.33224 16.3378 7.86686 15.0636C6.40148 13.7894 5.08264 12.1423 3.91034 10.122C2.73803 8.10182 1.64566 5.75049 0.633216 3.06805C0.544405 2.8501 0.5 2.607 0.5 2.33876ZM16.5126 8.85207C16.1396 8.85207 15.8021 8.75567 15.5001 8.56287C15.1982 8.37007 15.0472 8.10602 15.0472 7.77071V1.98669C15.0472 1.65138 14.9584 1.41248 14.7808 1.26997C14.6032 1.12747 14.2923 1.05621 13.8483 1.05621L12.3296 1.10651C11.5658 1.10651 10.9886 1.23225 10.5978 1.48373C11.3793 1.8358 11.7701 2.40582 11.7701 3.19379V7.61982C11.7346 8.03895 11.5569 8.38683 11.2372 8.66346C10.9175 8.94009 10.5623 9.0784 10.1715 9.0784C9.63863 9.0784 9.2301 8.83531 8.94591 8.34911C7.56046 6.37081 6.53025 4.4931 5.85529 2.71598L5.6155 2.06213L2.07195 2.03698C1.84104 2.03698 1.71227 2.04956 1.68562 2.0747C1.65898 2.09985 1.64566 2.1711 1.64566 2.28846C1.64566 2.43935 1.66342 2.59862 1.69895 2.76627L2.25845 4.17456C3.75048 7.81262 5.37127 10.6795 7.12085 12.7751C8.87042 14.8708 10.5889 15.9186 12.2763 15.9186H14.9406C15.0472 15.9186 15.1271 15.8893 15.1804 15.8306C15.2337 15.7719 15.2781 15.6588 15.3136 15.4911L15.3669 15.2396L15.8732 13.0266C16.0152 12.7249 16.1396 12.5237 16.2462 12.4231C16.4415 12.2387 16.6725 12.1465 16.9389 12.1465C17.3652 12.1465 17.8003 12.3895 18.2444 12.8757L20.5091 15.5917C20.6512 15.8097 20.8022 15.9186 20.962 15.9186H25.3581C25.891 15.9186 26.1574 15.7929 26.1574 15.5414C26.1574 15.4576 26.1308 15.3738 26.0775 15.2899L22.2142 10.7382C21.9123 10.3861 21.7613 10.0089 21.7613 9.60651C21.7613 9.20414 21.9034 8.81854 22.1876 8.4497C22.4185 8.1144 22.867 7.55695 23.5331 6.77737C24.1992 5.99778 24.7809 5.26849 25.2782 4.5895C25.7756 3.9105 26.1042 3.29438 26.264 2.74112L26.3439 2.4142C26.3262 2.38067 26.3173 2.32618 26.3173 2.25074C26.3173 2.1753 26.3084 2.11243 26.2907 2.06213H22.1077C21.8412 2.16272 21.6281 2.31361 21.4682 2.51479L21.3084 2.9926C20.8643 4.14941 19.7009 5.93491 17.8181 8.34911C17.4451 8.68442 17.0099 8.85207 16.5126 8.85207Z"/>
</symbol>
<symbol id="icon-youtube" viewBox="0 0 25 19" fill="currentColor">
  <path d="M16.3509 8.79275L11.1145 5.30184C11.0159 5.23691 10.9016 5.19985 10.7837 5.19459C10.6657 5.18934 10.5486 5.21608 10.4446 5.27198C10.3406 5.32789 10.2537 5.41087 10.193 5.51215C10.1324 5.61343 10.1002 5.72924 10.1 5.84729V12.8291C10.1001 12.9481 10.1327 13.0648 10.1942 13.1667C10.2557 13.2686 10.3438 13.3518 10.4491 13.4073C10.5524 13.4631 10.6691 13.4895 10.7864 13.4837C10.9037 13.478 11.0172 13.4402 11.1145 13.3746L16.3509 9.88366C16.4409 9.82395 16.5148 9.7429 16.5658 9.64772C16.6169 9.55255 16.6436 9.44621 16.6436 9.3382C16.6436 9.23019 16.6169 9.12385 16.5658 9.02868C16.5148 8.93351 16.4409 8.85245 16.3509 8.79275ZM11.4091 11.6073V7.06911L14.8127 9.3382L11.4091 11.6073ZM23.8891 3.04366C23.7942 2.67547 23.6131 2.33511 23.3609 2.05061C23.1086 1.76611 22.7924 1.54561 22.4382 1.40729C18.7182 -0.0217993 12.7509 1.91553e-05 12.5 1.91553e-05C12.2491 1.91553e-05 6.28182 -0.0217993 2.56182 1.40729C2.20764 1.54561 1.8914 1.76611 1.63914 2.05061C1.38689 2.33511 1.20584 2.67547 1.11091 3.04366C0.827273 4.11275 0.5 6.07638 0.5 9.3382C0.5 12.6 0.827273 14.5637 1.11091 15.6327C1.20584 16.0009 1.38689 16.3413 1.63914 16.6258C1.8914 16.9103 2.20764 17.1308 2.56182 17.2691C6.28182 18.6982 12.2491 18.6764 12.5 18.6764H12.5764C13.3291 18.6764 18.8927 18.6327 22.4382 17.2691C22.7924 17.1308 23.1086 16.9103 23.3609 16.6258C23.6131 16.3413 23.7942 16.0009 23.8891 15.6327C24.1727 14.5637 24.5 12.6 24.5 9.3382C24.5 6.07638 24.1727 4.11275 23.8891 3.04366ZM22.6236 15.3055C22.5807 15.472 22.499 15.6259 22.3853 15.7548C22.2715 15.8838 22.1289 15.984 21.9691 16.0473C18.4782 17.3891 12.5655 17.3673 12.5 17.3673C12.4345 17.3673 6.52182 17.3891 3.03091 16.0473C2.87107 15.984 2.72846 15.8838 2.61471 15.7548C2.50096 15.6259 2.41929 15.472 2.37636 15.3055C2.11455 14.3018 1.80909 12.4582 1.80909 9.3382C1.80909 6.2182 2.11455 4.37457 2.37636 3.37093C2.41929 3.20445 2.50096 3.05047 2.61471 2.92156C2.72846 2.79264 2.87107 2.69243 3.03091 2.62911C6.52182 1.28729 12.4345 1.30911 12.5 1.30911C12.5655 1.30911 18.4782 1.28729 21.9691 2.62911C22.1289 2.69243 22.2715 2.79264 22.3853 2.92156C22.499 3.05047 22.5807 3.20445 22.6236 3.37093C22.8855 4.37457 23.1909 6.2182 23.1909 9.3382C23.1909 12.4582 22.8855 14.3018 22.6236 15.3055Z"/>
</symbol>
<symbol id="icon-telegram" viewBox="0 0 21 18" fill="currentColor">
  <path fill-rule="evenodd" clip-rule="evenodd" d="M19.9608 0.152905C20.1393 0.302216 20.2255 0.534898 20.1872 0.764481L17.5611 16.5214C17.5244 16.7411 17.3789 16.9273 17.1745 17.0159C16.97 17.1045 16.7346 17.0833 16.5493 16.9597L8.67082 11.7074C8.51771 11.6054 8.41447 11.4437 8.38624 11.2619C8.358 11.08 8.40738 10.8947 8.52233 10.751L11.133 7.48773L6.77303 10.3944C6.577 10.525 6.32597 10.5407 6.11524 10.4353L0.862931 7.80915C0.627693 7.69153 0.485347 7.44488 0.5012 7.18235C0.517052 6.91983 0.688044 6.6921 0.935726 6.60364L19.3188 0.0382579C19.538 -0.0400244 19.7822 0.00359465 19.9608 0.152905ZM2.82626 7.32275L6.36168 9.09046L13.9231 4.0495C14.1925 3.86994 14.5525 3.91349 14.7712 4.1521C14.99 4.3907 15.0022 4.75314 14.8 5.00591L9.99502 11.0121L16.4328 15.3039L18.7083 1.65058L2.82626 7.32275Z"/>
</symbol>
<symbol id="icon-htmlacademy" viewBox="0 0 60 60" fill="currentColor">
  <path d="M30.2 5h-.2l-19.7 2.1v36.2l19.7 11.7 19.7-11.7v-36.2l-19.5-2.1zm17 36.8l-17.2 10.2-17.2-10.2v-14.8l17.1 10.2v1.8l-11.7-7v1.8l11.8 7.1v1.9l-11.8-7v1.8l11.8 7 11.9-7.1v-7.6l5.3-3.2v15.1zm-.1-17l-4.7 2.8-2.2 1.3-10.3-6.1v1.8l8.8 5.3h-.1l-.2.1-1.3.7-7.3-4.3v1.8l5.8 3.4-1.4.9-4.3-2.6v1.8l2.9 1.7-2.9 1.7-17-10.1 17-10.2 17.2 10zm.1-1.8l-17.3-10.2-17.1 10.2v-13.6l17.2-1.8 17.2 1.8v13.6z"/>
</symbol>
<symbol id="icon-mail" viewBox="0 0 20 20" fill="none">
  <path d="M1.5 8.5V16.5H18.5V8.5M1.5 3.5H18.5V5.5L10 11.5L1.5 5.5V3.5Z" stroke-linecap="round" stroke-linejoin="round"/>
</symbol>
<symbol id="icon-tel" viewBox="0 0 20 20" fill="none">
  <path d="M10 10H18.5M18.5 10L16 7.5M18.5 10L16 12.5M8.5 2.5V7.5H5.5V12.5H8.5V17.5H6C4.5 17.5 3.5 16.5 3.5 15V5C3.5 3.5 4.5 2.5 6 2.5H8.5Z" stroke-linecap="round" stroke-linejoin="round"/>
</symbol>
<symbol id="slider-tablet" viewBox="0 0 40 512" fill="none">
  <rect x="18" width="4" height="512" rx="2" fill="currentColor"/>
  <rect x="1" y="237" width="38" height="38" rx="19" fill="white"/>
  <path d="M16 247L8 256L16 265V247Z" fill="currentColor"/>
  <path d="M32 256L24 247V265L32 256Z" fill="currentColor"/>
  <rect x="1" y="237" width="38" height="38" rx="19" stroke="currentColor" stroke-width="2"/>
</symbol>
<symbol id="slider-mobile" viewBox="0 0 40 256" fill="none">
  <rect x="18" width="4" height="256" rx="2" fill="currentColor"/>
  <rect x="1" y="110" width="38" height="38" rx="19" fill="white"/>
  <path d="M16 120L8 129L16 138V120Z" fill="currentColor"/>
  <path d="M32 129L24 120V138L32 129Z" fill="currentColor"/>
  <rect x="1" y="110" width="38" height="38" rx="19" stroke="currentColor" stroke-width="2"/>
</symbol>
<symbol id="icon-more" viewBox="0 0 30 30" fill="none">
  <line x1="15" x2="15" y2="30" stroke="#D3D3D3" stroke-width="2"/>
  <line x1="30" y1="15" y2="15" stroke="#D3D3D3" stroke-width="2"/>
</symbol>
</svg>

<svg xmlns="http://www.w3.org/2000/svg" xmlns:xlink="http://www.w3.org/1999/xlink"><symbol id="footer-logo" viewBox="0 0 102 18"><g fill="none"><path d="M1.264 16.538A6.865 6.865 0 0 1 0 12.231V5.846a6.95 6.95 0 0 1 1.185-4.384C2.055.462 3.398 0 5.374 0s3.24.462 4.03 1.308a5.422 5.422 0 0 1 1.186 3.769v1.538H6.718V4.846a3.693 3.693 0 0 0-.238-1.538 1.12 1.12 0 0 0-.456-.473 1.163 1.163 0 0 0-.65-.143c-.553 0-.948.154-1.106.539a4.846 4.846 0 0 0-.237 1.692v8.23a3.111 3.111 0 0 0 .316 1.616c.158.385.553.539 1.106.539s.87-.154 1.027-.539c.18-.52.26-1.067.238-1.615v-1.846h3.872v1.538a5.775 5.775 0 0 1-1.185 3.846c-.79.923-2.134 1.385-4.031 1.385-1.897-.077-3.32-.539-4.11-1.539ZM15.253.23h4.504l3.32 17.54H19.44l-.632-3.693H16.2l-.632 3.692h-3.715l3.4-17.538Zm3.24 11.54-.948-6.847-.949 6.846h1.897Zm7.35-8.616h-2.687V.23h9.404v2.846h-2.687v14.692h-4.03V3.154ZM39.752.23h6.955v1.847h-4.505v5.77h3.635v1.768h-3.635v6.462h4.505v1.77h-7.034V.23h.079Zm9.009 0H50.5l5.137 11.616V.231h2.055v17.538h-1.58l-5.217-12v12h-2.134V.231Zm11.302 0h6.954v1.847h-4.504v5.77h3.635v1.768h-3.635v6.462h4.504v1.77h-6.954V.23Zm9.009 0h3.635a6.451 6.451 0 0 1 4.03 1.078c.87.692 1.265 1.923 1.265 3.538 0 2.23-.71 3.616-2.212 4.077l2.528 8.77h-2.45l-2.37-8.231h-1.976v8.23h-2.529V.231h.079Zm3.477 7.54a3.524 3.524 0 0 0 2.292-.616c.474-.385.711-1.154.711-2.308a4.848 4.848 0 0 0-.237-1.692 1.975 1.975 0 0 0-.869-.923 3.69 3.69 0 0 0-1.739-.308h-1.106v5.77h.948v.076Zm8.614 8.692A7.613 7.613 0 0 1 80.058 12V6.154a12.26 12.26 0 0 1 .395-3.308 3.916 3.916 0 0 1 1.502-2c.882-.508 1.9-.75 2.924-.692 1.66 0 2.845.384 3.556 1.23a5.77 5.77 0 0 1 1.107 3.847v.615H87.17v-.538a11.04 11.04 0 0 0-.158-1.923 1.533 1.533 0 0 0-.633-1A2.493 2.493 0 0 0 84.878 2a2.416 2.416 0 0 0-1.58.462c-.187.152-.338.34-.447.551a1.701 1.701 0 0 0-.186.68 14.01 14.01 0 0 0-.158 2.076v6.539a6.816 6.816 0 0 0 .474 2.923c.316.615.949.846 1.897.846.374.045.754-.018 1.092-.182.337-.165.617-.422.805-.741a6.908 6.908 0 0 0 .553-3.077v-1.23h-2.292v-1.77h4.584v8.692h-1.58l-.238-2a3.143 3.143 0 0 1-1.226 1.658 3.288 3.288 0 0 1-2.014.573 4.046 4.046 0 0 1-1.899-.352 3.932 3.932 0 0 1-1.5-1.186Zm13.515-4.847L90.805.308h2.371l2.766 8.461L98.63.308H101l-3.872 11.307v6.154h-2.371v-6.154h-.08Z" fill="#111"/></g></symbol><symbol id="htmlacademy" viewBox="0 0 60 60"><g fill="currentColor"><path d="M30.2 5H30L10.3 7.1v36.2L30 55l19.7-11.7V7.1L30.2 5zm17 36.8L30 52 12.8 41.8V27l17.1 10.2V39l-11.7-7v1.8L30 40.9v1.9l-11.8-7v1.8l11.8 7 11.9-7.1v-7.6l5.3-3.2v15.1zm-.1-17-4.7 2.8-2.2 1.3-10.3-6.1v1.8l8.8 5.3h-.1l-.2.1-1.3.7-7.3-4.3v1.8l5.8 3.4-1.4.9-4.3-2.6v1.8l2.9 1.7-2.9 1.7-17-10.1 17-10.2 17.2 10zm.1-1.8L29.9 12.8 12.8 23V9.4L30 7.6l17.2 1.8V23z"/></g></symbol><symbol id="mail" viewBox="0 0 20 20"><g fill="none"><path d="M1.5 8.5v8h17v-8m-17-5h17v2l-8.5 6-8.5-6v-2Z"/></g></symbol><symbol id="more" viewBox="0 0 30 30"><g fill="none"><path stroke="#D3D3D3" stroke-width="2" d="M15 0v30M30 15H0"/></g></symbol><symbol id="slider-mobile" viewBox="0 0 40 256"><g fill="none"><rect x="18" width="4" height="256" rx="2" fill="currentColor"/><rect x="1" y="110" width="38" height="38" rx="19" fill="#fff"/><path d="m16 120-8 9 8 9v-18ZM32 129l-8-9v18l8-9Z" fill="currentColor"/><rect x="1" y="110" width="38" height="38" rx="19" stroke="currentColor" stroke-width="2"/></g></symbol><symbol id="slider-tablet" viewBox="0 0 40 512"><g fill="none"><rect x="18" width="4" height="512" rx="2" fill="currentColor"/><rect x="1" y="237" width="38" height="38" rx="19" fill="#fff"/><path d="m16 247-8 9 8 9v-18ZM32 256l-8-9v18l8-9Z" fill="currentColor"/><rect x="1" y="237" width="38" height="38" rx="19" stroke="currentColor" stroke-width="2"/></g></symbol><symbol id="tel" viewBox="0 0 20 20"><g fill="none"><path d="M10 10h8.5m0 0L16 7.5m2.5 2.5L16 12.5m-7.5-10v5h-3v5h3v5H6c-1.5 0-2.5-1-2.5-2.5V5c0-1.5 1-2.5 2.5-2.5h2.5Z"/></g></symbol><symbol id="telegram" viewBox="0 0 21 18"><g fill="currentColor"><path fill-rule="evenodd" clip-rule="evenodd" d="M19.96.153c.18.15.265.382.227.611l-2.626 15.757a.657.657 0 0 1-1.012.439l-7.878-5.253a.656.656 0 0 1-.149-.956l2.611-3.263-4.36 2.906a.657.657 0 0 1-.658.041L.863 7.81a.657.657 0 0 1 .073-1.205L19.319.038a.657.657 0 0 1 .642.115ZM2.827 7.323 6.362 9.09l7.561-5.04a.656.656 0 0 1 .877.956l-4.805 6.006 6.438 4.292L18.708 1.65 2.826 7.323Z"/></g></symbol><symbol id="vk" viewBox="0 0 28 17"><g fill="currentColor"><path d="M.5 2.339c0-.855.515-1.316 1.545-1.383l3.97.025a.52.52 0 0 1 .533.377c.409 1.257.866 2.343 1.372 3.257.506.913 1.168 1.965 1.985 3.156.071.15.187.226.346.226.125 0 .223-.059.293-.176l.08-.277.027-4.35c0-.302-.075-.503-.226-.604-.151-.1-.431-.176-.84-.226-.32-.05-.48-.235-.48-.553 0-.067.01-.118.027-.151C9.505.57 10.572.025 12.33.025L13.822 0c.675 0 1.234.16 1.678.478.444.318.666.821.666 1.509v5.708c.125.084.24.126.347.126.266 0 .497-.15.692-.453 1.954-2.582 3.011-4.308 3.17-5.18 0-.017.019-.059.054-.126.125-.251.329-.47.613-.654.284-.184.533-.31.746-.377a.554.554 0 0 1 .24-.05h4.13l.266.025c.355 0 .63.16.826.478.07.1.12.21.146.327.027.117.045.234.054.352.009.117.013.184.013.2v.177c-.124.687-.44 1.42-.946 2.2-.506.78-1.15 1.622-1.931 2.528-.782.905-1.27 1.5-1.466 1.785-.16.201-.24.386-.24.554 0 .134.071.285.213.452l3.89 4.627c.213.269.32.562.32.88 0 .386-.16.705-.48.956-.32.252-.701.394-1.145.428l-.453.025h-4.05a.855.855 0 0 0-.106.012.862.862 0 0 1-.107.013c-.39 0-.755-.16-1.092-.478-.125-.134-.96-1.123-2.505-2.967a1.387 1.387 0 0 0-.373-.327c-.07.268-.164.654-.28 1.157-.115.503-.2.863-.253 1.081l-.08.428c-.177.586-.55.938-1.119 1.056l-.373.025h-2.61c-1.475 0-2.945-.637-4.41-1.911-1.466-1.275-2.784-2.922-3.957-4.942C2.738 8.102 1.646 5.75.633 3.068a1.916 1.916 0 0 1-.133-.73Zm16.013 6.513c-.373 0-.71-.096-1.013-.29-.302-.192-.453-.456-.453-.791V1.987c0-.336-.089-.575-.266-.717-.178-.143-.489-.214-.933-.214l-1.518.05c-.764 0-1.341.126-1.732.378.781.352 1.172.922 1.172 1.71V7.62a1.5 1.5 0 0 1-.533 1.043 1.59 1.59 0 0 1-1.066.415c-.532 0-.94-.243-1.225-.729C7.56 6.371 6.53 4.493 5.856 2.716l-.24-.654-3.544-.025c-.231 0-.36.013-.386.038-.027.025-.04.096-.04.213 0 .151.017.31.053.478l.56 1.409c1.491 3.638 3.112 6.505 4.862 8.6 1.75 2.096 3.468 3.144 5.155 3.144h2.665c.106 0 .186-.03.24-.088.053-.06.097-.172.133-.34l.053-.251.506-2.213c.142-.302.267-.503.373-.604a.975.975 0 0 1 .693-.277c.426 0 .861.243 1.305.73l2.265 2.716c.142.218.293.327.453.327h4.396c.533 0 .8-.126.8-.378a.466.466 0 0 0-.08-.251l-3.864-4.552c-.302-.352-.453-.73-.453-1.131 0-.403.142-.788.427-1.157.23-.336.679-.893 1.345-1.673a37.63 37.63 0 0 0 1.745-2.188c.498-.679.826-1.295.986-1.848l.08-.327a.371.371 0 0 1-.027-.163.574.574 0 0 0-.026-.189h-4.183c-.267.1-.48.252-.64.453l-.16.478c-.444 1.156-1.607 2.942-3.49 5.356a1.892 1.892 0 0 1-1.305.503Z"/></g></symbol><symbol id="youtube" viewBox="0 0 25 19"><g fill="currentColor"><path d="m16.35 8.793-5.236-3.491a.655.655 0 0 0-1.014.545v6.982a.654.654 0 0 0 1.014.546l5.237-3.491a.654.654 0 0 0 0-1.091Zm-4.94 2.814V7.07l3.403 2.27-3.404 2.268Zm12.48-8.563a2.4 2.4 0 0 0-1.452-1.637C18.718-.022 12.751 0 12.5 0c-.25 0-6.218-.022-9.938 1.407A2.4 2.4 0 0 0 1.11 3.044C.827 4.113.5 6.076.5 9.338c0 3.262.327 5.226.61 6.295a2.4 2.4 0 0 0 1.452 1.636c3.72 1.43 9.687 1.407 9.938 1.407h.076c.753 0 6.317-.043 9.862-1.407a2.4 2.4 0 0 0 1.451-1.636c.284-1.07.611-3.033.611-6.295s-.327-5.225-.61-6.294Zm-1.266 12.261a1.09 1.09 0 0 1-.655.742c-3.49 1.342-9.404 1.32-9.469 1.32-.066 0-5.978.022-9.47-1.32a1.09 1.09 0 0 1-.654-.742c-.261-1.003-.567-2.847-.567-5.967 0-3.12.306-4.963.567-5.967a1.09 1.09 0 0 1 .655-.742c3.49-1.342 9.403-1.32 9.469-1.32.066 0 5.978-.022 9.47 1.32a1.092 1.092 0 0 1 .654.742c.262 1.004.567 2.847.567 5.967 0 3.12-.305 4.964-.567 5.968Z"/></g></symbol></svg>
